X:1
T:6 Lieder, Op.4
T:An meine Zither
T:6 Lieder, Op.4
T:4. An meine Zither 
T:Emilie Zumsteeg
T:Theodor Körner
T:Creative Commons copyright waiver (CC0 1.0 Universal)
T:Creative Commons copyright waiver (CC0 1.0 Universal)
C:Emilie Zumsteeg
Z:Theodor Körner
Z:Creative Commons copyright waiver (CC0 1.0 Universal)
%%score 1 { 2 | 3 }
L:1/8
Q:1/4=100
M:6/8
K:D
V:1 treble nm="Singstimme\nVoice"
V:2 treble nm="Pianoforte"
V:3 bass 
V:1
!mf! F3/2 E/ F A3/2 G/ E | D3- D2 z | d c d e3/2 f/ e | %3
w: Sin- ge in hei- li- ger|Nacht, _|du mei- nes Her- zens Ver-|
w: (Töne) * * * * *|||
 (A2"^crochet corrected to quaver\nV\nV\n"{/c} B) A2 z |!mp! E3/2 F/ E D F A |!<(! (B6!<)! | %6
w: trau- * te,|freund- li- che Zi- ther, ein|Lied|
w: |||
 E)!<(! A c d3/2!<)!!mp! F/!<(! ^G |[Q:1/4=94] A2!<)! z z2 z | z6 |!p! A2 A{/A} =c3/2 B/ A | %10
w: hier wo die Lieb- li- che|wohnt.||Sanft um- flü- stre dein|
w: ||||
 =G3 z2!mp! e | (eF) =c!>(! c2 B3/4 A/4 | .A .G!>)! z z2 z | z!mp! G!<(! G B2 B | E2!<)! z z2 z | %15
w: Ton den|süs- * sen Traum der Ge-|lieb- ten,|und des Sän- gers|Bild,|
w: |||||
!mp! F3/2 E/ D"^note\nIMSLP:      schlumer\nlieder.net: schlummer\nV\nV\nV\nV\n" d3/2 c/ B | %16
w: zau- bre der Schlum- mer ihr|
w: |
 A3 z2 z | z6 |[Q:1/4=92] z6[Q:1/4=88][Q:1/4=84][Q:1/4=76] |[Q:1/4=94]!mf! F z F A G E | D3 z2 z | %21
w: vor.|||Ach! wie gleicht dir mein|Herz;|
w: |||||
!mp!!<(! d c d e f e!<)! |!>(! (A2{/c} B) A!>)! z z |!mp!!<(! E z z F E F!<)! | %24
w: da sind die Sai- ten Ge-|füh- * le,|und ist es die|
w: |||
!>(! A3/2 G/ F E2!>)! z |!mf!!<(! F z z G z G!<)! |!f!!>(! B3/2 A/ G F2!>)! z |!f! (d E) B B A G | %28
w: Lie- be nicht auch,|ist es die|Lie- be nicht auch,|die es zum Wohl- laut ge-|
w: ||||
 F3[Q:1/4=90]!<(! d3-!<)! | (d/E/) (c/B/) (G/E/) (B/A/)[Q:1/4=86] (F/D/) (F/E/) | %30
w: stimmt, die|_ _ es * zum * Wohl- * laut * ge- *|
w: ||
[Q:1/4=94] D2 z z2 z | z6 | z6 | z6 |] %34
w: stimmt?||||
w: ||||
V:2
!mp! [DF]2 [DF] [CE]2 [A,C] |!<(! [A,D]2 [DF] [DA]2 [Fd]!<)! | [DG]2!mp! [DG] [EG]2 [EG] | %3
!>(! F2 [EG] [DF]2 [A,D]!>)! |!p! [A,C]2 [A,C] [A,D]2 [A,D] | [^G,D]2 [G,D] [G,D]2 [G,D] | %6
 [A,C]2 [A,C]!>(! [A,D]2 [B,D]!>)! |!pp! C>EA/c/ !>!f>eB/c/ | A z/!pp! C/E/A/- A>=CE/A/- | %9
 A z/ =C/E/A/- A z/ A,/B,/F/ | E z/ G,/B,/E/ G z/ G,/B,/E/ |!<(! F z/ A,/=C/F/- F z/ A,/B,/^D/ | %12
 E z/ G,/B,/E/ G z/ G,/B,/E/ | G z/ G,/B,/E/ G z/ B,/E/G/ | A z/ A,/^C/E/ G z/ A,/B,/^C/ | %15
 D z/ (F,/A,/D/ F) z/ E/F/^G/!<)! |!mf! A2!mf! c d>cB |!<(! !trill(!Te3!<)!!>(! d'>c'b!>)! | %18
 (a/e/c/A/E/C/)"_augehalten." A,/A/B,/^G/C/=G/ |"_voriges Zeitmaas."!mp! [DF]A,A [CG]A,A | %20
 [DF]A,A [DF]A,A | [DG]B,B [CG]A,B | [DF]A,[B,G] [DF]A,[F,D] | %23
!<(! z/ G,/B,/E/B,/G,/ z/ A,/B,/^D/B,/A,/ | z/ G,/B,/E/A,/=D/ z/ A,/C/E/C/A,/ | %25
 z/ A,/D/F/D/A,/ z/ A,/C/G/C/A,/ | z/ A,/D/F/A,/C/ z/ A,/D/F/D/A,/!<)! |!f! B, z [B,E] [CE]2 [CE] | %28
!<(! [CE]2 [CE] [B,D]2 [B,D]!<)! |!>(! [B,E]2 [G,B,] [F,A,]2 [G,A,]!>)! | %30
!mf! !tenuto!.[F,A,]2 F!f!!<(! A>BA | %31
 !tenuto!.d2 f"^I have used a hidden mordent for\nplayback here, since a trill \nobscures the rhythm\nV\nV\nV\nV\n" PTa>ba!<)! | %32
!>(! !tenuto!.d'2 F !tenuto!.D2 F | !fermata!D6!>)! |] %34
V:3
 [D,A,]2 [D,A,] [D,G,]2 [D,G,] | [D,F,]2 [D,A,] [D,F,]2 [D,A,] | [D,B,]2 [D,B,] [D,C]2 [D,C] | %3
 [D,D]2 [D,C] [D,D]2 [D,F,] | [A,,G,]2 [A,,G,] [A,,F,]2 [A,,F,] | %5
 !>![A,,=F,]2 [A,,F,] [A,,E,]2 [A,,E,] | [A,,E,]2 [A,,E,] [A,,^F,]2 [A,,E,] |!pp! A,A,,C, E,B,^G, | %8
 A,A,,E, A,A,,E, | A,A,,=C, F,B,,^D, | E,E,,G,, B,,E,G, | A,A,,=C, ^D,F,,B,, | E,E,,G,, E,G,,B,, | %13
 E,E,,E, D,D,,D, | ^C,C,,E,, A,,C,E, | D,D,,F,, ^G,,E,,B,, | %16
 A,,/C,/E,/A,/E,/C,/ A,,/D,/E,/^G,/E,/C,/ | A,,/C,/E,/A,/E,/C,/ A,,/D,/E,/^G,/E,/D,/ | %18
 [A,,C,E,A,]2 z z2 z | [D,,D,]2 z z2 z | [D,,D,]6 | [D,,D,]2 z z2 z | [D,,D,]6 | G,,2 z F,,2 z | %24
 E,,2 F,, G,,2 G, | F,3 E,3 | D,2 E, F,3 | G, z G, A,2 A,, | ^A,,2 A,, B,,2 B,, | %29
 G,,2 G,, =A,,2 A,, | !tenuto!.D,2 [D,F,A,] [D,G,C]2 [D,G,C] | %31
 !tenuto!.[D,F,D]2 [D,F,D] [D,G,C]2 [D,G,C] | %32
 !tenuto!.[D,F,D]2 [D,A,] !tenuto!.[D,F,]2!ped! [D,A,] | !fermata![D,F,]6!ped-up! |] %34

